X:1
T:Title
%%score { 1 | 2 }
L:1/8
M:4/2
K:Ab
V:1 bass nm="Grand Piano"
V:2 bass 
V:1
 z8 z4[Q:1/4=224] E4 | [E,CE]4[K:treble] [F,CF]4 [G,CG]4 [A,CA]4 | [A,DA]8 [G,DG]4 [A,DF]4 | %3
 E4 G4 A4 B4 |[M:6/4] [Cc]12 |[M:2/4] c4 |[M:8/4] e4 e4 c4 d4 | c8 [FB]4 F4 | A4 A4 [=DG]4 [DA]4 | %9
[M:6/4] B12 |[M:2/4] E4 |[M:8/4] E6 E2 F4 G4 | F8 E4 E4 | E4 c4 B4 A4 |[M:6/4] d12 |[M:2/4] d4 | %16
[M:8/4] d4 [EB]4 [Ee]4 [Ad]4 | [Ac]4 [GB]4 [FA]4 [FB]4 | [Ac]4 A4 A4 G4 |[M:6/4] [CA]12 |] %20
V:2
 z8 z4 E,4 | A,,4 A,,4 A,,4 A,,4 | B,,8 B,,4 B,,4 | [E,G,D]4 [E,B,D]4 [E,A,D]4 [E,G,D]4 | %4
[M:6/4] [A,,A,]12 |[M:2/4][K:treble] [A,CE]4 |[M:8/4] [=A,CF]4 [A,CF]4 [A,EF]4 [A,EF]4 | %7
 [B,DF]8[K:bass] [D,D]4 [D,B,D]4 | [F,A,C]4 [F,A,C]4 [B,,A,]4 [B,,A,]4 |[M:6/4] [E,G,D]12 | %10
[M:2/4] E,4 |[M:8/4] [E,G,D]6 [E,G,D]2 [E,A,D]4 [E,B,D]4 | [E,A,D]8 [E,G,D]4 [E,G,D]4 | %13
 [A,C]4 [A,CE]4 [_G,CE]4 [G,CE]4 |[M:6/4] [F,A,D]12 |[M:2/4] [F,A,D]4 | %16
[M:8/4] [E,G,E]4 [D,G,]4 [C,A,]4 [F,A,]4 | [E,E]4 [=E,C]4 [F,C]4 [D,B,]4 | %18
 [E,A,]4 [E,CE]4 [E,B,D]4 [E,B,D]4 |[M:6/4] [A,,A,]12 |] %20

